X: 10
T: Country Club
C: Scott Joplin
%%abc-version 2.0
%%abcx-abcm2ps-target-version 5.9.1 (29 Sep 2008)
%%abc-creator hum2abc beta
%%abcx-conversion-date 2021/07/20 09:00:57
%%abc-copyright Copyright 2004 by Craig Stuart Sapp
%%abc-edited-by Craig Stuart Sapp
%%abc-edited-by Craig Stuart Sapp
%%abcx-initial-encoding-date 2004/06/10/
%%humdrum-veritas 2593502141
%%humdrum-veritas-data 432865085
%%removed 0's from note length
%%linebreak <none>
%%barnumbers 0
L: 1/8
M: 2/4
N: Derived from countryclub.krn
Q: "Slow March Time." 1/4=100
%%staves {1 2}
V: 1 clef=treble
V: 2 clef=bass
K: C
[V:1] [K:clef=treble][M:2/4]{/^F}G2{/F}G2 | 
[V:2] [K:clef=bass][M:2/4]{/^F,}G,2{/F,}G,2 | 
[V:1] cA G^D/E/ | 
[V:2] CA, G,^D,/E,/ | 
[V:1] FE/F/ E_E | 
[V:2] F,E,/F,/ E,_E, | 
[V:1] D z !accent![gdBG] z ]|:  
[V:2] D, z !accent![G,G,,] z ]|:  
[V:1] {/^f}[g2e2c2]{/f}[g2e2c2] | 
[V:2] [C,C,,][ECG,] [E,E,,][ECG,] | 
[V:1] [c'c][aA][g2e2c2G2] | 
[V:2] [A,A,,][F,F,,] [E,E,,][C/C,/][_B,/_B,,/] | 
[V:1] f/e'd'/ c'/d/e/f/ | 
[V:2] A,[FCA,] _A,[FCA,] & [A,2A,,2][_A,2_A,,2] | 
[V:1] e/a/a/a/- a/g/d/g/ & c>[fB]- [fB]B | 
[V:2] G,[ECG,] G,[FB,G,] & [G,2G,,2][G,2G,,2] | 
[V:1] [g2e2c2]{/^f}[g2e2c2] | 
[V:2] [C,C,,][ECG,] [E,E,,][ECG,] | 
[V:1] [c'c][aA] [gecG][a/A/][^a/^A/] | 
[V:2] [A,A,,][F,F,,] [E,E,,][C,C,,] | 
[V:1] !accent![b2^f2^d2B2]!accent![b2f2d2B2] | 
[V:2] !accent![B,,B,,,]!accent![A,A,,] !accent![G,G,,]!accent![^F,^F,,] | 
[V:1] !accent![b/g/e/B/]e/g[g2f2B2] | 
[V:2] !accent![E,E,,][EB,G,] D,/B,,/G,, | 
[V:1] {/^f}[g2e2c2]{/f}[g2e2c2] | 
[V:2] [C,C,,][ECG,] [E,E,,][ECG,] | 
[V:1] [c'c][aA][g2e2c2G2] | 
[V:2] [A,A,,][F,F,,] [E,E,,][CC,] | 
[V:1] [^ged^G]>[aA] [bgdB][gedG] | 
[V:2] B,[ED^G,] E,[EDB,] & [B,2B,,2][E,2E,,2] | 
[V:1] [a2e2c2A2]-[aecA][gecG] | 
[V:2] A,[ECA,]x2 & [A,2A,,2][CC,][_B,_B,,] | 
[V:1] f/e'd'/ c'/d/e/g/ | 
[V:2] A,[FCA,] _A,[FCA,] & [A,2A,,2][_A,2_A,,2] | 
[V:1] [e2c2][aA][gG] | 
[V:2] G,[ECG,]x2 & [G,2G,,2][FF,][EE,] | 
[V:1] [c2^F2][d2B2=F2] |[1 
[V:2] A,,A, G,,G, & A,,2G,,2 | 
[V:1] ce/c/ dg & E2[B2F2] :|][2 
[V:2] [G,2C,2][G,2G,,2] :|]  
[V:1] [cE]g/c'/ d'e' ]|: 
[V:2] [G,C,][K:clef=treble]e fg[K:clef=bass] ]|:  
[V:1] [f'd']>[e'c'] [d'/b/][bg][c'/a/] | 
[V:2] G,,[FB,G,] B,,[FB,G,] | 
[V:1] [bg][a/f/][f/d/]- [f/d/][e/^c/][fd] | 
[V:2] D,[FB,G,] G,,[FB,G,] | 
[V:1] [^f/^d/][ge][f/d/] [g/e/][=f/=d/][ec] | 
[V:2] C,[ECG,] C,[ECG,] | 
[V:1] [^d2c2-A2][e2c2G2] | 
[V:2] ^F,/G,/A,/F,/ G,E, | 
[V:1] [e/^c/][fd][e/c/] [f/d/][e/=c/][dB] | 
[V:2] D,[FB,G,] G,,[FB,G,] | 
[V:1] [^c2^A2E2][dBF][fd] | 
[V:2] G,,/^D,/E,/G,/ G,, z & G,,2G,,x | 
[V:1] [^f/^d/][ge][f/d/] [ge][a=f] | 
[V:2] C,[ECG,] [ECG,][FCA,] | 
[V:1] [ge]c'd'e' | 
[V:2] [ECG,][K:clef=treble] efg[K:clef=bass] | 
[V:1] [f'd']>[e'c'] [d'/b/][bg][c'/a/] | 
[V:2] G,,[FB,G,] B,,[FB,G,] | 
[V:1] [bg][a/f/][f/d/]- [f/d/][e/^c/][fd] | 
[V:2] D,[FB,G,] G,,[FB,G,] | 
[V:1] ^f/gc'/x2 & ^d<e [c'ge][c'^ge] | 
[V:2] C,[ECG,] E,[EC_B,] | 
[V:1] [c'2a2f2]-[c'af]A |[1 
[V:2] F,[FCA,] [FCA,]A, | 
[V:1] f>e dA & A2-AA | 
[V:2] D>E FA, | 
[V:1] f>e dA/_A/ & A2-AA/_A/ | 
[V:2] D>E FA,/_A,/ | 
[V:1] G/^G/A/^A/ B/d/=A/B/ | 
[V:2] G,[FB,] G,,[FB,G,] | 
[V:1] [cE]g/c'/ d'e' :|][2 
[V:2] [CC,][K:clef=treble] efg[K:clef=bass] :|]  
[V:1] d>e ff & A2-A[dB] | 
[V:2] F>E D[^G,^G,,] | 
[V:1] !accent!^f/^e/f !accent!f/e/f & !tenuto![d2c2]!tenuto!d2 ||  
[V:2] !tenuto![A,2A,,2]!tenuto![_A,2_A,,2] ||  
[V:1] [g2d2B2]-[gdB][g=fB] | 
[V:2] [G,G,,][=F,=F,,] [E,E,,][D,D,,] | 
[V:1] {/^f}[g2e2c2]{/f}[g2e2c2] | 
[V:2] [C,C,,][ECG,] [E,E,,][ECG,] | 
[V:1] [c'c][aA][g2e2c2G2] | 
[V:2] [A,A,,][F,F,,] [E,E,,][C/C,/][_B,/_B,,/] | 
[V:1] f/e'd'/ c'/d/e/f/ | 
[V:2] A,[FCA,] _A,[FCA,] & [A,2A,,2][_A,2_A,,2] | 
[V:1] e/a/a/a/- a/g/d/g/ & c>[fB]- [fB]B | 
[V:2] G,[ECG,] G,[FB,G,] & [G,2G,,2][G,2G,,2] | 
[V:1] [g2e2c2]{/^f}[g2e2c2] | 
[V:2] [C,C,,][ECG,] [E,E,,][ECG,] | 
[V:1] [c'c][aA] [gecG][a/A/][^a/^A/] | 
[V:2] [A,A,,][F,F,,] [E,E,,][C,C,,] | 
[V:1] !tenuto!!accent![b2^f2^d2B2]!tenuto!!accent![b2f2d2B2] | 
[V:2] !accent![B,,B,,,]!accent![A,A,,] !accent![G,G,,]!accent![^F,^F,,] | 
[V:1] !accent![b/g/e/B/]e/g[g2f2B2] | 
[V:2] !accent![E,E,,][EB,G,] D,/B,,/G,, | 
[V:1] {/^f}[g2e2c2]{/f}[g2e2c2] | 
[V:2] [C,C,,][ECG,] [E,E,,][ECG,] | 
[V:1] [c'c][aA][g2e2c2G2] | 
[V:2] [A,A,,][F,F,,] [E,E,,][CC,] | 
[V:1] [^ged^G]>[aA] [bgdB][gedG] | 
[V:2] B,[ED^G,] E,[EDB,] & B,,2E,,2 | 
[V:1] [a2e2c2A2]-[aecA][gecG] | 
[V:2] A,[ECA,]x2 & [A,2A,,2][CC,][_B,_B,,] | 
[V:1] f/e'd'/ c'/d/e/f/ | 
[V:2] A,[FCA,] _A,[FCA,] & [A,2A,,2][_A,2_A,,2] | 
[V:1] [e2c2][aA][gG] | 
[V:2] G,[ECG,]x2 & [G,2G,,2][FF,][EE,] | 
[V:1] [c2^F2][d2B2=F2] | 
[V:2] A,,A, G,,G, & A,,2G,,2 | 
[V:1] [c2E2]-[cE] ||  
[V:2] G,2-G, & C,G,,C,, ||  
[V:1]  [K:F] [M:2/4]C [I:setbarnb 57]]|:  
[V:2]  [K:F] [M:2/4]z ]|:  
[V:1] F/E/F/G/ A/dA/ | 
[V:2] F,[CA,] C,[CA,] | 
[V:1] [c/A/][=B/^G/][cA][f2A2] | 
[V:2] F,[CA,] D,[DA,] & x2D,2 | 
[V:1] [BG]>[A^F] [B/G/][cA][B/G/] | 
[V:2] _D,[_DB,] C,[CB,] & _D,2C,2 | 
[V:1] [B/G/][AF]F/ DC | 
[V:2] F,[CA,] ^G,A, & x2F,2 | 
[V:1] F/E/F/G/ A/dA/ | 
[V:2] F,[CA,] C,[CA,] | 
[V:1] [c/A/][=B/^G/][cA] fd/^d/ & x2[c2F2] | 
[V:2] F,[CA,] A,,_A,, | 
[V:1] e<g d/g3/ & [c2G2]=B2 | 
[V:2] G,,[ECG,] G,,[F=B,G,] | 
[V:1] [g2_B2]-[gB]A/G/ | 
[V:2] z [F_DB,-][ECB,] z & C,2-C, z | 
[V:1] F/E/F/G/ A/dA/ | 
[V:2] F,[CA,] C,[CA,] | 
[V:1] [c/A/][=B/^G/][cA][f2A2] | 
[V:2] F,[CA,] D,[DA,] & x2D,2 | 
[V:1] !tenuto![A2F2]!tenuto![A2F2] | 
[V:2] C,F,E,_E, | 
[V:1] [B2F2]-[BF] z | 
[V:2] D,F,/B,/ D x[K:clef=treble] & D,2-D, z | 
[V:1] d'/c'/b/a/ ^g z | 
[V:2] [=B^G][dB][fd] z | 
[V:1] d'/c'/=b/a/ ^g[^GF] | 
[V:2] [=B^G][dB][fd]=B, | 
[V:1] .[AF] z [_B/E/D/][A/E/C/][GE_B,] |[1 
[V:2] .C z[K:clef=bass]!tenuto!C,2 | 
[V:1] [F2A,2]-[FA,][cC] :|][2 
[V:2] !accent!F,!accent!C, !accent!D,!accent!E, :|]  
[V:1] [F2A,2]-[FA,]c/d/ ]|: 
[V:2] F,C,F,, z ]|:  
[V:1] [ec]>[fd] [^f/^d/][g3/e3/] | 
[V:2] G,[ECB,] C,[CB,] | 
[V:1] [ec]>[fd] [^f/^d/][g/e/]c' | 
[V:2] G,[ECB,] C,[ECB,] | 
[V:1] {/=b} c'/a/f/a/ f/c/A/F/ | 
[V:2] [FCA,] zz2 | 
[V:1] A,/C/F/A/ c/^c/d/^d/ | 
[V:2] z2[^D2C2A,2^F,2] | 
[V:1] [ec]>[fd] [^f/^d/][g3/e3/] | 
[V:2] G,[ECB,] C,[ECB,] | 
[V:1] [ec]>[fd] [^f/^d/][g/e/]c' | 
[V:2] G,[ECB,] C,[ECB,] | 
[V:1] {/=b} c'/a/f/a/ f/c/A/F/ | 
[V:2] [FCA,] zz2 | 
[V:1] A,/C/F/A/ C/F/A/c/ | 
[V:2] z2[A,2F,2] | 
[V:1] ^c>d e/c3/ & A2G2 | 
[V:2] E,[^CA,G,] A,,[CA,G,] | 
[V:1] d/^c/d/^G/ A/a/f/d/ & F2-F z | 
[V:2] D,[DA,F,][DA,F,] z | 
[V:1] ^c>d e/c3/ & A2G2 | 
[V:2] E,[^CA,G,] A,,[CA,G,] | 
[V:1] d/^c/d[d2A2F2] & F2x2 | 
[V:2] D,[DA,F,] C,[DA,F,] & D,2C,2 | 
[V:1] d>^c d/e/d & G2^G2 | 
[V:2] B,,[DB,G,] =B,,[FD^G,] & B,,2=B,,2 | 
[V:1] d/ca/ ba & A2[^f2c2] | 
[V:2] C,[FCA,] D,[^FCA,] | 
[V:1] a/g/f/B/ d/c/G/A/ & [=f=B]>B z E |[1 
[V:2] [=FD=B,G,][FDB,^G,] [FCA,][_B,C,] | 
[V:1] F2-F/c/[d/c/][^d/c/] :|][2 
[V:2] A,2-A, F,/^F,/ & F,C,F,, F,/^F,/ :|]  
[V:1] F2!accent![fcAF] z ||  
[V:2] A,2x2 & F,C,!accent!F,, z ||  


